icons/src/scalable/default/status/network-no-route-symbolic.svg

<?xml version="1.0" encoding="UTF-8" standalone="no"?>
<svg
   xmlns:dc="http://purl.org/dc/elements/1.1/"
   xmlns:cc="http://creativecommons.org/ns#"
   xmlns:rdf="http://www.w3.org/1999/02/22-rdf-syntax-ns#"
   xmlns:svg="http://www.w3.org/2000/svg"
   xmlns="http://www.w3.org/2000/svg"
   xmlns:sodipodi="http://sodipodi.sourceforge.net/DTD/sodipodi-0.dtd"
   xmlns:inkscape="http://www.inkscape.org/namespaces/inkscape"
   height="16"
   width="16"
   version="1.1"
   id="svg22"
   sodipodi:docname="network-no-route-symbolic.svg"
   inkscape:version="1.0.2 (e86c870879, 2021-01-15)">
  <metadata
     id="metadata28">
    <rdf:RDF>
      <cc:Work
         rdf:about="">
        <dc:format>image/svg+xml</dc:format>
        <dc:type
           rdf:resource="http://purl.org/dc/dcmitype/StillImage" />
        <dc:title></dc:title>
      </cc:Work>
    </rdf:RDF>
  </metadata>
  <defs
     id="defs26" />
  <sodipodi:namedview
     pagecolor="#ffffff"
     bordercolor="#666666"
     borderopacity="1"
     objecttolerance="10"
     gridtolerance="10"
     guidetolerance="10"
     inkscape:pageopacity="0"
     inkscape:pageshadow="2"
     inkscape:window-width="1920"
     inkscape:window-height="1043"
     id="namedview24"
     showgrid="true"
     inkscape:zoom="38.890873"
     inkscape:cx="12.999253"
     inkscape:cy="7.4602011"
     inkscape:window-x="1920"
     inkscape:window-y="0"
     inkscape:window-maximized="1"
     inkscape:current-layer="svg22">
    <inkscape:grid
       type="xygrid"
       id="grid1436" />
  </sodipodi:namedview>
  <path
     d="m 4.5,16 c 0,0 -1,-1 -4.5,-6 h 2 v -3 h 1 v 4 h -1.219 c 2.219,3 2.719,3.406 2.719,3.406 0,0 0.5,-0.406 2.719,-3.406 h -1.219 v -3 h 1 v 2 h 2 c -3.5,5 -4.5,6 -4.5,6 z"
     opacity="0.5"
     id="path16"
     style="color:#000000;fill:#bebebe" />
  <path
     id="path18"
     style="color:#000000;fill:#bebebe;opacity:0.5"
     d="M 8.5 0 C 8.5 0 7.5 1 4 6 L 6 6 L 6 8 L 7 8 L 7 5 L 5.78125 5 C 8.00025 2 8.5 1.59375 8.5 1.59375 C 8.5 1.59375 8.6951425 1.8088346 8.8417969 1.96875 L 9.0761719 1.8066406 L 9.1367188 1.7753906 C 9.3297881 1.6768375 9.5290449 1.591283 9.7304688 1.5117188 C 8.8654898 0.39318915 8.5 0 8.5 0 z M 11.667969 4.1503906 C 11.375176 4.1894323 11.077582 4.2959041 10.777344 4.4179688 C 10.935189 4.6281122 11.038992 4.7569739 11.21875 5 L 10 5 L 10 9 L 10.355469 9 C 10.395766 8.7430606 10.457591 8.4900162 10.556641 8.2480469 L 10.566406 8.2265625 L 10.574219 8.2070312 C 10.691578 7.9526573 10.838998 7.7148972 11 7.4863281 L 11 6 L 12.310547 6 C 12.377753 5.9280607 12.450278 5.8575161 12.515625 5.7851562 L 12.511719 5.7871094 C 12.583275 5.7073361 12.621695 5.6280749 12.677734 5.5488281 C 12.296926 5.0083229 11.994423 4.592923 11.675781 4.1503906 C 11.673183 4.1507305 11.670567 4.1500441 11.667969 4.1503906 z " />
  <path
     d="m 12.271,2.0369998 c -0.533,0 -1.037,0.061 -1.512,0.183 a 5.853,5.853 0 0 0 -1.167,0.446 l -0.658,0.458 0.566,0.876 0.452,-0.336 c 0.688,-0.35 1.394,-0.54 2.116,-0.54 0.607,0 1.09,0.16 1.421,0.491 0.327,0.316 0.493,0.737 0.493,1.236 0,0.311 -0.073,0.603 -0.217,0.868 -0.13,0.258 -0.299,0.503 -0.508,0.736 -0.205,0.227 -0.42,0.455 -0.648,0.682 v 0.001 a 6.392,6.392 0 0 0 -0.633,0.7 l -0.001,0.002 a 3.66,3.66 0 0 0 -0.492,0.7860004 2.378,2.378 0 0 0 -0.177,0.935 c 0,0.208 0.024,0.403 0.056,0.5939998 h 1.088 c -10e-4,-0.023 -0.01,-0.044 -0.01,-0.068 v -0.1869998 c 0,-0.387 0.077,-0.74 0.232,-1.05 0.15,-0.314 0.336,-0.5990004 0.557,-0.8550004 l 0.002,-0.002 c 0.218,-0.264 0.458,-0.515 0.721,-0.755 a 7.23,7.23 0 0 0 0.7,-0.734 c 0.21,-0.253 0.384,-0.522 0.527,-0.807 0.138,-0.288 0.209,-0.613 0.209,-0.982 a 3.06,3.06 0 0 0 -0.147,-0.914 l -10e-4,-0.002 v -0.002 a 2.04,2.04 0 0 0 -0.482,-0.867 c -0.234,-0.255 -0.552,-0.466 -0.957,-0.63 v -0.002 c -0.385,-0.172 -0.895,-0.261 -1.528,-0.261 z m -0.27,9.9630002 c -0.326,0 -0.562,0.1 -0.743,0.3 a 1.025,1.025 0 0 0 -0.275,0.718 c 0,0.279 0.089,0.512 0.275,0.718 0.18,0.2 0.417,0.3 0.742,0.3 0.325,0 0.562,-0.099 0.743,-0.3 0.186,-0.206 0.275,-0.44 0.275,-0.718 0,-0.28 -0.089,-0.512 -0.275,-0.718 -0.18,-0.2 -0.418,-0.3 -0.743,-0.3 z"
     font-family="Ubuntu"
     font-size="72.036px"
     font-weight="500"
     letter-spacing="0"
     style="line-height:125%;-inkscape-font-specification:'Ubuntu Medium';text-align:center;fill:#bebebe"
     text-anchor="middle"
     word-spacing="0"
     id="path4" />
</svg>

<svg version="1.1" viewBox="0 0 16 16" xmlns="http://www.w3.org/2000/svg">
 <g fill="#bebebe">
  <path d="m4.5 16s-1-1-4.5-6h2v-3h1v4h-1.219c2.219 3 2.719 3.406 2.719 3.406s0.5-0.406 2.719-3.406h-1.219v-3h1v2h2c-3.5 5-4.5 6-4.5 6z" color="#000000" opacity=".5"/>
  <path d="m8.5 0s-1 1-4.5 6h2v2h1v-3h-1.2188c2.219-3 2.7188-3.4062 2.7188-3.4062s0.19514 0.21508 0.3418 0.375l0.23438-0.16211 0.060547-0.03125c0.19307-0.098553 0.39233-0.18411 0.59375-0.26367-0.86498-1.1185-1.2305-1.5117-1.2305-1.5117zm3.168 4.1504c-0.29279 0.039042-0.59039 0.14551-0.89062 0.26758 0.15784 0.21014 0.26165 0.33901 0.44141 0.58203h-1.2188v4h0.35547c0.040297-0.25694 0.10212-0.50998 0.20117-0.75195l0.009765-0.021484 0.007813-0.019531c0.11736-0.25437 0.26478-0.49213 0.42578-0.7207v-1.4863h1.3105c0.067206-0.071939 0.13973-0.14248 0.20508-0.21484l-0.003906 0.0019532c0.071556-0.079773 0.10998-0.15903 0.16602-0.23828-0.38081-0.54051-0.68331-0.95591-1.002-1.3984-0.002598 3.399e-4 -0.005214-3.465e-4 -0.007812 0z" color="#000000" opacity=".5"/>
  <path d="m12.271 2.037c-0.533 0-1.037 0.061-1.512 0.183a5.853 5.853 0 0 0-1.167 0.446l-0.658 0.458 0.566 0.876 0.452-0.336c0.688-0.35 1.394-0.54 2.116-0.54 0.607 0 1.09 0.16 1.421 0.491 0.327 0.316 0.493 0.737 0.493 1.236 0 0.311-0.073 0.603-0.217 0.868-0.13 0.258-0.299 0.503-0.508 0.736-0.205 0.227-0.42 0.455-0.648 0.682v1e-3a6.392 6.392 0 0 0-0.633 0.7l-1e-3 2e-3a3.66 3.66 0 0 0-0.492 0.786 2.378 2.378 0 0 0-0.177 0.935c0 0.208 0.024 0.403 0.056 0.594h1.088c-1e-3 -0.023-0.01-0.044-0.01-0.068v-0.187c0-0.387 0.077-0.74 0.232-1.05 0.15-0.314 0.336-0.599 0.557-0.855l2e-3 -2e-3c0.218-0.264 0.458-0.515 0.721-0.755a7.23 7.23 0 0 0 0.7-0.734c0.21-0.253 0.384-0.522 0.527-0.807 0.138-0.288 0.209-0.613 0.209-0.982a3.06 3.06 0 0 0-0.147-0.914l-1e-3 -2e-3v-2e-3a2.04 2.04 0 0 0-0.482-0.867c-0.234-0.255-0.552-0.466-0.957-0.63v-2e-3c-0.385-0.172-0.895-0.261-1.528-0.261zm-0.27 9.963c-0.326 0-0.562 0.1-0.743 0.3a1.025 1.025 0 0 0-0.275 0.718c0 0.279 0.089 0.512 0.275 0.718 0.18 0.2 0.417 0.3 0.742 0.3s0.562-0.099 0.743-0.3c0.186-0.206 0.275-0.44 0.275-0.718 0-0.28-0.089-0.512-0.275-0.718-0.18-0.2-0.418-0.3-0.743-0.3z" font-family="Ubuntu" font-size="72.036px" font-weight="500" letter-spacing="0" text-anchor="middle" word-spacing="0"/>
 </g>
</svg>
